sites/all/themes/sedermera/graphics/building.svg

<svg xmlns="http://www.w3.org/2000/svg" width="20" height="20" viewbox="0 0 20 20">
  <path fill="#B2B3B6" d="M19 19v-11h-9v-8h-9v19h-1v1h20v-1h-1zm-17-18h3v3h-3v-3zm0 4h3v3h-3v-3zm0 4h3v3h-3v-3zm0 4h3v3h-3v-3zm6 6h-5v-2h5v2zm1-3h-3v-3h3v3zm0-4h-3v-3h3v3zm0-4h-3v-3h3v3zm0-4h-3v-3h3v3zm2 5h3v3h-3v-3zm0 4h3v3h-3v-3zm6 6h-5v-2h5v2zm1-3h-3v-3h3v3zm0-4h-3v-3h3v3z"/>
</svg>

<?xml version="1.0" encoding="utf-8"?>
<!-- Generator: Adobe Illustrator 18.0.0, SVG Export Plug-In . SVG Version: 6.00 Build 0)  -->
<!DOCTYPE svg PUBLIC "-//W3C//DTD SVG 1.1//EN" "http://www.w3.org/Graphics/SVG/1.1/DTD/svg11.dtd">
<svg version="1.1" id="Layer_1" xmlns="http://www.w3.org/2000/svg" xmlns:xlink="http://www.w3.org/1999/xlink" x="0px" y="0px"
	 width="20px" height="20px" viewBox="0 0 20 20" enable-background="new 0 0 20 20" xml:space="preserve">
<path fill="#B2B3B6" d="M19,19V8h-9l0-8H1v19H0v1h20v-1H19z M2,1h3v3H2V1z M2,5h3v3H2V5z M2,9h3v3H2V9z M2,13h3v3H2V13z M8,19H3v-2
	h5V19z M9,16H6v-3h3V16z M9,12H6V9h3V12z M9,8H6V5h3V8z M9,4H6V1h3V4z M11,9h3v3h-3V9z M11,13h3v3h-3V13z M17,19h-5v-2h5V19z M18,16
	h-3v-3h3V16z M18,12h-3V9h3V12z"/>
</svg>
